X:1
T:Neilidh O'Boyle's (Strathspey)
M:4/4
O:Trad. (18.2.2016/NS)
L:1/8
K:Gmaj
"G" d2dB    "Am" efge   | "G/H" de(3dcB "D/A" .A2A2 | "G" d2 dB   "C" efge    | "D" dBAc "G" B<GG2 :|
"G" (3Bcdgb "C" (3agfg2 | "G/H" (3Bcdgb "D/A" .a2a2 | "G" (3Bcdgb "C" (3agfge | "D" dBAc "G" B<GG2  |
"G" (3Bcdgb "C" (3agfg2 | "G/H" (3Bcdgb "D/A" a2ga  | "G" aggf    "C" gage    | "D" dBAc "G" B<GG2 ||
